X:202
T:Dick Dale. VWMLa.202
%%VWML:Anon2-3049-p125-0
F:http://www.vwml.org/record/Anon2/3049/p125
S:Anon. MS, late 18thC, Vaughan Williams Mem. Library
O:England;Yorkshire
Z:vmp/efdss.Simon Wilson. Reviewed PJH 2008.
M:6/8
L:1/8
Q:3/8=100
K:G
(A/B/c).A Bdg|gfe dcB|(c/d/e).c dBG|EcA FED|\
(A/B/c).A Bdg|gfe dcB|(c/d/e).c dBG|EAF G3:|
|:[B,2D2][B,D] [C2E2][CE]|ABc BAG|(c/d/e).c dBG|EAG FED|\
[B,2D2][B,D] [C2E2][CE]|ABc BAG|)e/f/g).e dBG|cAFG3:|
